X: 37
T: Old Kilfenora Jig
M: 6/8
L: 1/8
R: Jig
K: G
A|B3 BAG|F2d d^cd|B2g gfg|eag fed|
B3 BAG|F2d d^cd|ede fef|a3 g2 :|
d|gfg b2d|gfg b2g|fag fed|(3fgag fed|
gfg b2d|gfg b2g|fag fdf|a3 g2 :|
